src/assets/img/typescript.svg

<svg width="60" height="60" viewBox="0 0 60 60" fill="none" xmlns="http://www.w3.org/2000/svg">
<path d="M59.9182 4.7749C59.4816 2.48295 57.7081 0.627558 55.4434 0.136426C55.3343 0.109141 55.2252 0.109141 55.0887 0.0818554C55.0615 0.0818554 55.0342 0.0272851 55.0069 0H4.96595C4.93867 0.0272851 4.91138 0.0818554 4.85681 0.0818554C2.59215 0.463847 0.682187 2.26467 0.163769 4.55662C0.136484 4.63847 0.081914 4.74761 0.0273438 4.85675V55.0341C0.0546289 55.0887 0.109199 55.116 0.109199 55.1705C0.654902 57.6808 2.18287 59.236 4.66582 59.8636C4.74767 59.8909 4.80224 59.9454 4.85681 60H55.0887C55.1433 59.9727 55.1706 59.9181 55.2252 59.8909C57.7081 59.3179 59.2361 57.8172 59.8636 55.3342C59.8909 55.2524 59.8636 55.1433 59.8909 55.0614C59.8909 55.0341 59.9455 55.0068 59.9728 54.9795V4.93861C59.9728 4.88404 59.9182 4.85675 59.9182 4.7749ZM34.8159 33.2606H34.5158C32.2511 33.2606 29.9591 33.2606 27.6945 33.2606C27.5853 33.2606 27.4762 33.2606 27.367 33.2606C27.367 33.2879 27.3398 33.2879 27.3398 33.3151C27.3398 33.4243 27.3398 33.5334 27.3398 33.6426V54.6794H21.3643V33.2879H13.8609V28.513H34.7886V33.2606H34.8159ZM54.9523 47.5307C54.8977 48.4584 54.7613 49.3588 54.3793 50.2319C54.2702 50.5048 54.1883 50.7503 54.0519 51.0232C53.5608 52.06 52.7422 52.7967 51.7872 53.397C50.6958 54.0791 49.4953 54.4611 48.2402 54.7067C46.8486 54.9795 45.4571 55.0614 44.0383 55.0068C43.3561 54.9795 42.674 54.9795 41.9919 54.8977C40.3821 54.7067 38.7995 54.352 37.3261 53.6426C37.2443 53.6153 37.1351 53.4789 37.1351 53.397C37.1351 51.6235 37.1351 49.8499 37.1351 48.0764C37.1351 48.0491 37.1351 48.0218 37.1351 47.9673C37.5717 48.2674 38.0082 48.5675 38.4448 48.8131C39.5089 49.4407 40.6822 49.8772 41.8827 50.1501C42.9196 50.3956 43.9564 50.4229 44.9932 50.3684C45.7845 50.3411 46.5758 50.1501 47.2852 49.7954C47.9128 49.4679 48.4312 49.0314 48.5676 48.2947C48.704 47.6398 48.6494 46.985 48.2675 46.412C47.7218 45.5935 46.9578 45.075 46.1119 44.6385C45.157 44.1746 44.202 43.7654 43.2197 43.3288C41.7736 42.6739 40.3548 41.9645 39.1815 40.8731C38.2265 39.9727 37.5171 38.9086 37.1897 37.6262C36.9987 36.8622 36.9441 36.0982 36.9714 35.3342C36.9987 33.4516 37.6808 31.8417 39.0178 30.5048C40.1092 29.4134 41.4462 28.7585 42.9196 28.3765C43.9291 28.131 44.9387 27.94 45.9755 27.9127C46.7122 27.9127 47.4489 27.8308 48.1583 27.8581C49.277 27.8854 50.3684 27.94 51.4598 28.2128C52.1692 28.4038 52.9059 28.5948 53.6153 28.7585C53.7518 28.7858 53.8063 28.8677 53.8063 29.0314C53.8063 30.7231 53.8063 32.442 53.8063 34.1337C53.8063 34.1883 53.8063 34.2428 53.7791 34.3247C53.5608 34.1883 53.3698 34.0791 53.1788 33.97C52.3057 33.4789 51.378 33.1514 50.423 32.9059C49.3589 32.6603 48.2947 32.4966 47.2033 32.5239C46.4666 32.5512 45.7027 32.6603 45.0205 32.9059C44.1747 33.206 43.4926 33.6971 43.1924 34.5975C42.9469 35.307 43.1379 35.9072 43.5744 36.4802C44.1201 37.1896 44.8568 37.6808 45.6481 38.0628C46.7122 38.5812 47.8036 39.0177 48.8404 39.5089C50.041 40.0819 51.2415 40.6548 52.2511 41.5007C53.1242 42.2374 53.9155 43.0559 54.352 44.1473C54.5976 44.8022 54.8159 45.4843 54.8159 46.221C54.925 46.6576 54.9796 47.0941 54.9523 47.5307Z" fill="#930f50"/>
</svg>

<svg width="60" height="60" fill="none" xmlns="http://www.w3.org/2000/svg"><path d="M59.918 4.775c-.436-2.292-2.21-4.147-4.475-4.639-.109-.027-.218-.027-.354-.054-.027 0-.055-.055-.082-.082H4.966c-.027.027-.055.082-.11.082C2.593.464.683 2.265.165 4.557a2.659 2.659 0 0 1-.137.3v50.177c.028.055.082.082.082.136.546 2.51 2.074 4.066 4.557 4.694a.49.49 0 0 1 .19.136H55.09c.054-.027.082-.082.136-.11 2.483-.572 4.011-2.073 4.639-4.556.027-.082 0-.19.027-.273 0-.027.055-.054.082-.081V4.939c0-.055-.055-.082-.055-.164ZM34.816 33.26h-7.449c0 .027-.027.027-.027.054V54.68h-5.976V33.288h-7.503v-4.775h20.928v4.748h.027Zm20.136 14.27c-.054.927-.19 1.828-.573 2.7-.109.274-.19.52-.327.792-.491 1.037-1.31 1.774-2.265 2.374-1.091.682-2.292 1.064-3.547 1.31-1.391.273-2.783.354-4.202.3-.682-.027-1.364-.027-2.046-.11-1.61-.19-3.192-.545-4.666-1.254-.082-.028-.19-.164-.19-.246V47.967c.436.3.872.6 1.309.846 1.064.628 2.237 1.064 3.438 1.337 1.037.246 2.073.273 3.11.218a5.576 5.576 0 0 0 2.292-.573c.628-.327 1.146-.764 1.283-1.5.136-.655.081-1.31-.3-1.883-.546-.819-1.31-1.337-2.156-1.773-.955-.464-1.91-.874-2.892-1.31-1.446-.655-2.865-1.364-4.038-2.456-.956-.9-1.665-1.964-1.992-3.247a8.171 8.171 0 0 1-.219-2.292c.028-1.882.71-3.492 2.047-4.83 1.091-1.09 2.428-1.745 3.902-2.128 1.01-.245 2.019-.436 3.055-.463.737 0 1.474-.082 2.183-.055 1.119.027 2.21.082 3.302.355.71.19 1.446.382 2.155.546.137.027.191.109.191.272v5.103c0 .054 0 .109-.027.19-.218-.136-.41-.245-.6-.354-.873-.491-1.801-.819-2.756-1.064-1.064-.246-2.128-.41-3.22-.382-.736.027-1.5.136-2.183.382-.845.3-1.527.791-1.828 1.691-.245.71-.054 1.31.382 1.883.546.71 1.283 1.2 2.074 1.583 1.064.518 2.156.955 3.192 1.446 1.201.573 2.401 1.146 3.411 1.992.873.736 1.665 1.555 2.101 2.646.246.655.464 1.337.464 2.074.109.437.164.873.136 1.31Z" fill="#930f50"/></svg>
